X:1
T:Galliard 39
T:Francis Cutting
T:Arranged by Gary Kerr
T:Glasgow University Library MS R.d.43, Euing Lute Book, f. 46
%%score ( 1 2 3 4 )
L:1/8
Q:1/4=72
M:3/4
K:C
V:1 treble-8 nm="Guitar"
V:2 treble-8 
V:3 treble-8 
V:4 treble-8 
V:1
"^Maestoso" !3!A>B c!4!d/e/ f2 | !3![Ace]4 [Aa]2 | [cg]4 [ce]2 | e>!4!d ef !4![Bg][ce] | %4
 !4!!1![df]2 [ce]2 [Bd-]2 | d!1!A B!1!c !4!dB | !3!!1![Ac]2 [GB]2 !3!!1![^FA]2 | %7
 G>!4!^F G!1!A [GB]2 | !3!!1![Ac]2 B3 d | %9
 z"^<font face=\"Times New Roman\"/>II" !2!^c2 !4!d [EAc]2 || !3!A>B c!4!d/e/ !1!f/d/e/f/ | %11
 e3 !1!f/!4!g/ !4!a2 | !1!!4![cg]4 [ce]2 | [Be]>!4!d ef [Bg][ce] | [df]2 [ce]2 [Bd-]2 | %15
 d!1!A B/!3!A/B/c/ !4!d/c/d/B/ | !3!!1![Ac]2 [GB]2 !3!!1![^FA]2 | %17
 G!1!E/!4!^F/ G/F/G/!3!A/ B/G/!3!A/B/ | !1!c/!3!A/B/c/ B/A/^G/^F/ A/G/(A/4G/4)F/4G/4 | %19
 !3!Ae- e/!4!d/!3!^c/B/ !3!!4![Ac]2 || z !1!c !2!A3 !4!d- | d!1!c B!2!A G2- | G!4!g e2 ea- | %23
 a!2!g !2!^fe !4!d2- | dd B2 Be- | e!3!d !1!c2 B2 | %26
 B e3"^<font face=\"Times New Roman\"/>CII" ^d2 | [Be]4 [^GBe]2 || z !1!c/!0!B/ !2!A3 d- | %29
 dc B!2!A G2- | Gg/f/ e2 ea- | a!2!g !2!^fe d2- | dd/c/ B2 Be- | ed c2 Bc/d/ | %34
 e/!2!^f/!4!g/e/"^<font face=\"Times New Roman\"/>CII" f/e/^d/^c/ d/e/f/!4!d/ | %35
 [Be]!>(!!3!=d/^c/ B/A/^G/^F/!>)! E2 || z (e [Ge]!4!!3![^Fd] !1![Ae]!2!!1![Ac] | %37
 B!2![EB] !2!!1![EA])([Aa] a^g | a!2!!3!!1![Adf] e[Ae] !2!!1![Af])(!4![Gd] | !4!d!2!^c dB !2!A2 | %40
 B)(!4!g g!2!^f ge | [Bd]3) c [Bd]!1!!0![ce] | !4!!1![df]2 [Be]2 ^G/A/B/G/ | %43
 A^F/^G/ A/B/(^c/4B/4)(c/4d/4) !2!c2 || ((=c/d/)e e!3!d e!4!d/c/ | %45
 B/!1!A/!2![EB] !1![EA])([Aa] a^g | ag/f/ e/!3!d/!2![Ae] !1![Af])(!4![Gd] | %47
 d!2!^c d!arpeggio!=c/B/ !2!A/G/A | B)(!4!g g!2!^f g=f/e/ | !4!d/)c/B/A/ G/A/B/c/ d/c/d/e/ | %50
 f/e/d/c/ B/A/^G/^F/ A/G/(A/4G/4)F/4G/4 |"^rit." !3!Ae- e/d/^c/B/ !fermata!!3!!4![Ac]2 |] %52
V:2
 !2![A,E]4 !3!!4![DAd]2 | !arpeggio!A,>B, CD/!2!E/ !2!F2 | !2!E3 !3!F/G/ A2 | %3
 !arpeggio![GB]3 !3!F !2!E2- | ED E!3!F !3!GD | !3!F2 !2![EG]2 !2![D-A]2 | DA, !2!B,!2!C !4!DA, | %7
 !2!!1![C-E]4 C!2!B,- | B,A, E2 [E,E]2 | A,4 !arpeggio!A,2 || [A,E]4 D2 | %11
 !arpeggio!A,>!2!B, !3!C2 F2 | !2!E3 !3!F/G/ A2 | !arpeggio!G3 F E2- | ED E!3!F !3!GD | %15
 !3!F2 !2!E2 D2- | DA, !2!B,!2!C !4!DA, | !2!C4 !2!B,2 | A,2 !2!E4 | !arpeggio!A,4 A,2 || %20
 A,3 !3!F D2 | G3 !3!F !1!ED | !3!C3 C !arpeggio!A,2 | D3 !3!C !2!B,A, | G,3 G, !arpeggio!E,2 | %25
 A,3 A, G,2 | !arpeggio!E,2 !1!B,A, B,2 | E,4 !arpeggio!E,2 || A,3 !3!F/!1!E/ D2 | G3 !3!F !1!ED | %30
 C3 !3!C/!2!B,/ A,2 | D3 C B,A, | G,3 !3!G,/!1!^F,/ E,2 | A,3 A, G,2 | E,2 B,4 | E,6 || %36
 A,2 B,2 (!2!C!arpeggio!A,- | A,(^G, A,)!2!F E2) | (D !arpeggio!D2 (^C D)!2!B, | %39
 A,2) (!3!G, (!arpeggio!G,2 !1!^F,) | G,E, D2) C2 | G3 A G2 | z D E2 E,2 | %43
 [A,E]4 !arpeggio!!1![A,EA]2 || A,2 B,2 (!2!CA,- | A,(^G, A,)!2!F E2) | (D D2 (!4!^C D)!2!B, | %47
 A,2) (!3!G, (G,2 !1!^F,) | G,E, D2) C2 | G,4 G,2 | D2 E4 | !arpeggio!A,4 A,2 |] %52
V:3
 x6 | x6 | x6 | x6 | x6 | x6 | x6 | x6 | x2 A^G/^F/ G2 | z !1!A3 x2 || x6 | x6 | x6 | x6 | x6 | %15
 x6 | x6 | x6 | x6 | x6 || x6 | x6 | x6 | x6 | x6 | x6 | x6 | x6 || x6 | x6 | x6 | x6 | x6 | x6 | %34
 x6 | x6 || x6 | z x3 z2 | x6 | x6 | x6 | x6 | x2 A^G/^F/ x2 | x6 || x6 | x6 | x6 | x6 | x6 | x6 | %50
 x6 | x6 |] %52
V:4
 x6 | x6 | x6 | x6 | x6 | x6 | x6 | x6 | x6 | z2 !1!E2 x2 || x6 | !3!!1![Ac]4 A2 | x6 | x6 | x6 | %15
 x6 | x6 | x6 | x6 | !2!E2 E4 || x6 | x6 | x4 [Ac-]2 | cB A2 G2- | G2 G2 !1![EG-]2 | %25
 G!4!B !2!A2 G2 | !1![EG]2 !3!!0![^FB]2 FA | !arpeggio!^G!>(!E/^F/ G/A/B/!>)!A/ x2 || x6 | x6 | %30
 x4 !arpeggio!!3!!1![Ac-]2 | cB !1!A2 G2 | x4 !arpeggio!!2![EG-]2 | GB A2 G2 | x6 | x6 || %36
 [A=c]2 x4 | x6 | x6 | !1!A2 GG D2 | GB !1!A2 c2 | x6 | x6 | x6 || A2 G!4!^F !1!A!2!A | x6 | x6 | %47
 !1!A2 GG D2 | GB !1!A2 z2 | x6 | x6 | !2!E2 E4 |] %52

